X:1
T:James Gibb editions
T:Psalm 113 (Becker) - Schütz
%%score [ ( 1 2 ) ( 3 4 ) ]
L:1/8
Q:1/4=98
M:3/4
K:F
V:1 treble nm="Soprano Alto"
V:2 treble 
V:3 bass nm="Tenor Bass"
V:4 bass 
V:1
"^Cornelius Becker\n(1561-1604)""^Psalm 113, SWV 211""^Heinrich Schütz\n(1585-1672)" d2 d2 A2 | %1
w: ~Lo- bet, ihr|
w: gebt sei- nem|
 B4 c2 | (A2 G4) | F4 A2 | G4 B2 | A4 d2 | (B2 c2) A2 | G4 z2 :| d2 | _e4 c2 | d4 B2 | c6 | A4 d2 | %13
w: Knecht, den|Her\- *|ren, sagt|ihm von|Her- zen|Ehr * und|Preis,|All-|zeit ge-|lobt muß|wer-|den des|
w: Na- men|Eh\- *|re, und|rühmt ihn|hoch mit|treu\- * em|Fleiß.||||||
 f4 d2- | d2 c3 c | B6- | B4 c2 | d4 c2 | B4 A2 | G6 | ^F4 F2 | G6 | G2 G3 ^F | G6- | G4 G2 | %25
w: Her- ren|* Gü- tig-|keit|* wohl|hier auf|die- ser||den und|dort|in~~~ E- wig-|keit.|* So-|
w: ||||||||||||
 d4 e2 | f4 e2 | d6 | A4 c2 | d6 | d2 d3 ^c | d6- | d4 A2 | B4 c2 | d4 c2 | =B6 | c4 A2 | d4 c2 | %38
w: weit die|Son- ne||* und|scheint|in al- le|Land,|* sein|heil- ger|Nam er-|hö-|het werd|al- ler|
w: |||||||||||||
 B2 A4 | (B4 c2 | d4) _e2 | d4 c2 | B2 A4 | G12 |] %44
w: Welt be-|kannt, *|* werd|al- ler|Welt be-|kannt.|
w: ||||||
V:2
 G2 G2 A2 | D4 C2 | (C2 E4) | F4 F2 | E4 D2 | F4 F2 | _E4 D2 | D4 z2 :| G2 | G4 F2 | F4 _E2 | _E6 | %12
w: ||||||||||||
 D4 F2 | A4 F2- | F2 F3 F | D6- | D4 F2 | F4 F2 | G4 D2 | (D4 C2) | D4 D2 | B,4 _E2- | E2 D3 D | %23
w: |||||||Er\- *||||
 D6- | D4 D2 | G4 G2 | A4 A2 | (A3 G F2) | E4 A2 | F4 G2- | G2 E2 E2 | ^F6- | F4 ^F2 | G4 A2 | %34
w: ||||ge\- * *|het *||||||
 B4 A2 | G6 | G4 =F2 | F4 A2 | G2 ^F4 | (G4 A2 | F4) G2 | F4 _E2 | D2 D4 | D12 |] %44
w: ||||||||||
V:3
 B,2 B,2 D2 | B,4 G,2 | (A,2 C4) | C4 C2 | C4 B,2 | C4 B,2 | G,4 ^F,2 | G,4 z2 :| =B,2 | C4 A,2 | %10
 B,4 G,2 | G,6 | ^F,4 B,2 | (C3 B,/C/ D2) | B,2 A,3 A, | B,6- | B,4 A,2 | B,4 C2 | D4 A,2 | %19
 (B,3 A, G,2) | A,4 A,2 | G,4 C2- | C2 A,3 A, | =B,6- | B,4 _B,2 | B,4 G,2 | D4 E2 | (F3 E D2) | %28
 ^C4 E2 | D4 B,2- | B,2 A,2 A,2 | A,6- | %32
 A,4"^2. Der Herr ist hoch erhaben über die Heiden in der Welt,\ndurchs Wortes Gnad und Gaben ihm werden sie zu Dienst \nbestellt,\nso weit der Himmel reichet sein Ehr geht weit und fern,\nwer ist, der sich vergleichet mit unserm Gott und Herrn?\nEr hat sich hoch gesetzet, hält doch in Augen wert,\nwas niedrig ist geschätzet im Himmel und auf Erd.\n\n3. Obgleich der Arm muß liegen unwert ein Zeit im Staub und Kot,\nvor jedermann sich biegen, traut er nur Gott, so hats kein Not.\nManch arm Kind steht dahinten, sucht sein Brot vor der Tür,\nGott weiß es doch zu finden, zeuchts aus dem Staub herfür,\nund setzt es an die Seite dem Fürsten in dem Land,\ndem Fürsten und viel Leuten kommt Heil durch seine Hand." D2 | %33
 D4 F2 | F4 F2 | D6 | E4 C2 | B,4 A,2 | %38
 D2"^4. Gott seinen reichen Segen in Gnad den Frommen schickt ins \nHaus.\nTut ihn'n oftmals begegnen, wenn alle Hoffnung scheidet aus.\nDem Weib, das Leid und Schmerzen trug von Unfruchtbarkeit,\ngab Gott, daß sie könnt herzen ihrs Leibes Frucht in Freud,\ndie Kind'r im Haus umspringen, die Gott bescheret hat,\nwer wollt nicht fröhlich singen von solcher reichen Gnad?" D4 | %39
 (D4 F2 | D4) B,2 | B,4 G,2 | G,2 ^F,4 | G,12 |] %44
V:4
 G,2 G,2 ^F,2 | G,4 E,2 | (F,2 C,4) | F,4 F,2 | C,4 G,2 | F,4 B,,2 | (_E,2 C,2) D,2 | G,,4 z2 :| %8
 G,2 | C,4 F,2 | B,,4 _E,2 | C,6 | D,4 B,,2 | A,,4 B,,2- | B,,2 F,3 F, | B,,6- | B,,4 F,2 | %17
 B,4 A,2 | G,4 F,2 | _E,6 | D,4 D,2 | _E,4 C,2- | C,2 D,3 D, | G,,6- | G,,4 G,2 | G,4 E,2 | %26
 D,4 ^C,2 | D,6 | A,4 A,2 | B,4 G,2- | G,2 A,2 A,2 | D,6- | D,4 D,2 | G,4 =F,2 | B,4 F,2 | G,6 | %36
 C,4 F,2 | B,4 F,2 | G,2 D,4 | (G,4 F,2 | B,4) _E,2 | B,,4 C,2 | G,2 D,4 | G,,12 |] %44

